X: 42589
T: Where Is The Cat?
R: slide
M: 12/8
K: Dmajor
|:"A"EF"a"E A2"a"E F2"a"E (A2"a"A)|EF"a"E A2"a"c "D"Bc"d"A "E"F2"e"E|
"A"EF"a"E A2"a"E F2"a"E (A2"a"A)|ce"a"c "D"d2"d"c Bc"d"A "E"F2"e"E:|
|:"A"cB"a"c e2"a"c "D"BA"d"F (d2"d"d)|"A"cB"a"c e2"a"c "D"Bc"d"A "E"F2"e"E|
"A"cB"a"c e2"a"c "D"BA"d"F (d2"d"d)|fa"d"f "A"e2"a"c "D"Bc"d"A "E"F2"e"E:|

